X: 1037
T: The Bashful Maid
R:double jig
N:"collected by Fielding"
B:O'Neill's 1037
Z:Transcribed by henrik.norbeck@mailbox.swipnet.se
M:6/8
L:1/8
K:D
A|FAA AFA|AFA d2 B|GBB FAA|EFE E2 A|
FAA AFA|AFA d2 B|ABc dcB|AFD D2:|
d|ecA ABA|ecA d2 A|GBB FAA|EFE E2 d|
ecA ABA|edc d2 B|ABc dcB|AFD D2:|


